X:1
T:Lidia ti lasso
T:Lidia ti lasso
T:Claudio Saracini
T:Source : Le terze Musiche per cantar e sonar---Venetia---A.Vincenti---1620. Editor : André Vierendeels (18/01/16).
T:Notes : Original clefs : C1, F4 Figures above the BC are notated in original print The original print was damaged (perhaps during WWII), necessitating an editorial addendum m 30 
T:©
T:©
T:©
T:©
C:Claudio Saracini
Z:©
%%score 1 2
L:1/8
Q:1/4=120
M:4/4
K:F
V:1 treble nm="Soprano" snm="S"
V:2 bass nm="BC" snm="BC"
V:1
 B6 G2 | d6 GA | B6 c2 | A8 | z f d4 e2 | ^c8 | z2 d4 AA | A6 F2 | D6 E2 | ^C8 | A2 EE E2 F2 | %11
w: Li dia,|Li- dia ti|las- *|so,|(ahi las- *|so)|ma'in pe- gno'il|cor ti|las- *|so,|ma se nel cor scol-|
 G4 G4 | c3 c ^c2 cc | d4 d4 | de f4 ed | c4 c4 | cd _e4 dc | B4 B4 | AB c4 BA | G4 F4 | %20
w: pi- ta|sei tu dol- ci mia|vi- ta,|co- me sen- za'il cor|mi- o,|co- me sen- za'il cor|mi- o|vi- ver dun- que pos-|s'i- o?|
 z2 c2 ^F4- | F4 ^F4 | z2 d2 =B4- | B4 =B4 | f6 cc | c4 c4 | BBcd e f3- | fdcB c4- | c4 B4 | %29
w: O Di-|* o,|O Di-|* o,|che tu po-|tes- si|me- co ve- ni- re'o ch'io|_ te- co mi stes-|* si,|
 d2 AA A2 B2 | c4 c4 | f2 ^cc c2 d2 | e4 e4 | f2 _ed cccd | _e3 e d4 | c8 | _e2 dc BBBc | %37
w: che se'il mio cor tu|se- i,|che s'el mio cor tu|se- i,|me- co'il mio co- r'e te mio|cor ha- vre-|i,|me- co'il mio co- r'e te mio|
 d3 B A4- | A8 | G8 |] %40
w: cor ha- vre-||i.|
V:2
 G,,8- | G,,8 | G,4 D,4- | D,4 D,,4 | D,,2 B,,4 A,,2- | A,,8 | D,8 | D,,8 | B,,4 A,,4- | A,,8 | %10
 A,,6 D,2 | C,4 C,4 | C,4 A,,4 | D,4 D,,4 | B,,3 C, D,2 E,2 | F,4 F,,4 | C,4 B,,A,, G,,2 | G,,8 | %18
 F,,2 A,,B,, C,4- | C,4 F,,4 | F,4 D,4- | D,4 D,,4 | D,4 G,,4- | G,,4 G,,4 | F,,8 | F,,8 | B,,8 | %27
 B,,4 F,4- | F,4 B,,4 | B,,2 D,4 G,,2 | F,,4 F,,4 | D,,2 A,,4 D,2 | C,4 C,4 | B,,2 C,2 F,,4 | %34
 C,4 G,,4 | C,8 | C,4 G,,4 | D,8 | D,,8 | G,,8 |] %40

